layouts/icon-pack/spell_leaves.svg

<?xml version="1.0" encoding="UTF-8"?>
<svg width="1200pt" height="1200pt" version="1.1" viewBox="0 0 1200 1200" xmlns="http://www.w3.org/2000/svg">
 <g fill="#fff">
  <path d="m653.58 526.64c-28.453-111.16-117.68-352.92-370.41-463.36-38.086-16.641-80.297 14.367-75.633 55.664 5.1797 45.938 2.5781 110.72-21.844 197.53-7.4492 26.117-16.457 51.766-26.977 76.805-31.172 75-124.22 354.4 125.55 544.1 24.789 18.84 41.496 46.395 46.734 77.086l15.328 89.297c1.793 10.484 7.2305 20 15.359 26.859 8.125 6.8633 18.418 10.633 29.055 10.641 11.98 0.03125 23.484-4.7109 31.961-13.176 8.4805-8.4648 13.238-19.961 13.227-31.941v-15.68c0-20.906-0.86719-41.781-2.6016-62.625-23.18-274.88-86.461-541.78-87.164-545.06-1.9766-8.2852 0.61719-16.996 6.8047-22.852 6.1875-5.8516 15.027-7.9609 23.191-5.5312 8.1641 2.4336 14.41 9.0352 16.387 17.32 0.70312 2.9531 51.891 219.12 79.477 464.27 0.58984 5.3516 3.082 10.312 7.0234 13.977 3.9453 3.668 9.0742 5.7891 14.453 5.9883 5.3789 0.19531 10.652-1.5508 14.852-4.918 56.812-45.797 129.8-126 151.95-246.7 9.9023-55.727 7.6055-112.94-6.7266-167.7z"/>
  <path d="m554.79 1141.2c-8.3672 0.035156-16.449-3.0469-22.664-8.6445-6.2188-5.5977-10.129-13.312-10.969-21.637-3.2109-34.711 7.3359-94.383 93.164-152.93 119.32-81.422 143.74-205.9 140.62-272.98-0.92969-16.715 5.418-33.016 17.414-44.695 21.68-20.812 64.359-46.711 141.3-44.344 27.027 0.97266 53.77-5.7656 77.109-19.43 7.1289-4.1914 13.805-9.1094 19.922-14.672 7.0273-6.332 16.727-8.793 25.922-6.5703 9.1953 2.2227 16.703 8.8359 20.062 17.68 9.2852 24.336 16.453 49.43 21.422 75 36.234 187.99-92.391 370.31-282 396.84-25.668 3.9336-51.816 3.5078-77.344-1.2656-15.461-3.375-31.43-3.7031-47.016-0.96094-28.945 5.5078-68.156 22.781-84.633 74.578-2.1367 6.9297-6.4258 13-12.246 17.328-5.8203 4.3281-12.867 6.6914-20.121 6.7422z"/>
 </g>
</svg>

<?xml version="1.0" encoding="UTF-8" standalone="no"?>
<!DOCTYPE svg PUBLIC "-//W3C//DTD SVG 1.1//EN" "http://www.w3.org/Graphics/SVG/1.1/DTD/svg11.dtd">
<svg width="100%" height="100%" viewBox="0 0 459 512" version="1.1" xmlns="http://www.w3.org/2000/svg" xmlns:xlink="http://www.w3.org/1999/xlink" xml:space="preserve" xmlns:serif="http://www.serif.com/" style="fill-rule:evenodd;clip-rule:evenodd;stroke-linejoin:round;stroke-miterlimit:2;">
    <g transform="matrix(1,0,0,1,-115.775,-58.6985)">
        <g transform="matrix(0.472951,0,0,0.472951,61.0189,30.937)">
            <path d="M653.58,526.64C625.127,415.48 535.9,173.72 283.17,63.28C245.084,46.639 202.873,77.647 207.537,118.944C212.717,164.882 210.115,229.664 185.693,316.474C178.244,342.591 169.236,368.24 158.716,393.279C127.544,468.279 34.496,747.679 284.266,937.379C309.055,956.219 325.762,983.774 331,1014.47L346.328,1103.76C348.121,1114.25 353.559,1123.76 361.687,1130.62C369.812,1137.48 380.105,1141.25 390.742,1141.26C402.722,1141.29 414.226,1136.55 422.703,1128.09C431.184,1119.62 435.941,1108.12 435.93,1096.14L435.93,1080.46C435.93,1059.56 435.063,1038.68 433.328,1017.84C410.148,742.96 346.867,476.06 346.164,472.78C344.188,464.495 346.782,455.784 352.969,449.928C359.157,444.076 367.996,441.967 376.16,444.397C384.324,446.83 390.57,453.432 392.547,461.717C393.25,464.67 444.438,680.837 472.024,925.987C472.614,931.338 475.106,936.299 479.047,939.964C482.993,943.632 488.122,945.753 493.5,945.952C498.879,946.147 504.152,944.401 508.352,941.034C565.164,895.237 638.152,815.034 660.302,694.334C670.205,638.607 667.908,581.394 653.576,526.634L653.58,526.64Z" style="fill:white;fill-rule:nonzero;"/>
            <path d="M554.79,1141.2C546.423,1141.24 538.341,1138.15 532.126,1132.56C525.907,1126.96 521.997,1119.24 521.157,1110.92C517.946,1076.21 528.493,1016.53 614.321,957.988C733.641,876.566 758.061,752.088 754.941,685.008C754.011,668.293 760.359,651.992 772.355,640.313C794.035,619.501 836.714,593.602 913.655,595.969C940.682,596.942 967.425,590.204 990.764,576.539C997.893,572.348 1004.57,567.43 1010.69,561.867C1017.71,555.535 1027.41,553.074 1036.61,555.297C1045.8,557.52 1053.31,564.133 1056.67,572.977C1065.95,597.313 1073.12,622.407 1078.09,647.977C1114.33,835.967 985.701,1018.29 796.092,1044.82C770.424,1048.75 744.276,1048.33 718.748,1043.55C703.287,1040.18 687.318,1039.85 671.732,1042.59C642.787,1048.1 603.576,1065.37 587.099,1117.17C584.962,1124.1 580.673,1130.17 574.853,1134.5C569.033,1138.83 561.986,1141.19 554.732,1141.24L554.79,1141.2Z" style="fill:white;fill-rule:nonzero;"/>
        </g>
    </g>
</svg>
